public/images/technologies/bigdata/overview/icon_3.svg

<svg width="66" height="66" viewBox="0 0 66 66" fill="none" xmlns="http://www.w3.org/2000/svg">
<rect x="0.5" y="0.687012" width="65" height="65" rx="8" fill="url(#paint0_linear_37_12738)"/>
<path fill-rule="evenodd" clip-rule="evenodd" d="M14.8646 12.7902C14.4767 12.9397 14.0974 13.2068 13.9065 13.4651C13.5176 13.9912 13.5023 14.137 13.5028 17.3211C13.503 19.1301 13.5349 20.4107 13.584 20.5874C13.6972 20.9952 14.1137 21.5127 14.5012 21.727L14.8292 21.9085V23.0249V24.1413L14.593 24.2391C14.2644 24.3753 13.7064 25.0192 13.5951 25.3906C13.4753 25.7907 13.4655 31.4783 13.584 31.9049C13.6972 32.3126 14.1137 32.8301 14.5012 33.0444L14.8292 33.2259V34.3465C14.8292 35.4182 14.822 35.4695 14.6644 35.5194C14.3742 35.6116 13.8737 36.1292 13.686 36.5314C13.5048 36.9195 13.5039 36.9383 13.5039 40.0046C13.5039 43.0784 13.5044 43.0888 13.6876 43.4823C13.7891 43.7002 14.0231 44.0067 14.2103 44.1669C14.8484 44.7132 14.3682 44.6877 24.018 44.6877H32.7102L32.8432 44.9286C33.8117 46.684 35.3966 48.5727 36.9593 49.8335C38.2775 50.8971 40.2285 52.0139 41.6209 52.5021L42.1484 52.687L42.6746 52.5068C42.964 52.4077 43.6592 52.1022 44.2195 51.8278C48.5035 49.73 51.6918 45.8425 52.9186 41.2208C53.3526 39.586 53.4212 38.9796 53.4188 36.8045C53.4167 34.8794 53.3233 33.7201 53.068 32.4539C52.8862 31.5525 52.0967 30.8655 51.2184 30.8444C50.9673 30.8383 50.3275 30.9341 49.7571 31.063C48.8407 31.2702 48.6102 31.2922 47.3766 31.2904C46.2229 31.2887 45.9147 31.2621 45.3933 31.1195C44.6556 30.9178 44.0688 30.6581 43.435 30.2527C42.8213 29.8602 42.4559 29.7504 41.9408 29.8036L41.5227 29.8467V27.9897C41.5227 26.9684 41.487 25.9436 41.4433 25.7124C41.333 25.1278 41.0122 24.6408 40.5262 24.32L40.1178 24.0506V22.9914V21.9323L40.3949 21.783C40.7391 21.5977 41.1841 21.1126 41.3547 20.7369C41.4677 20.4881 41.4837 20.0704 41.4837 17.3698V14.2868L41.2495 13.8184C40.9905 13.3004 40.5379 12.9018 40.0573 12.7683C39.6189 12.6466 15.1823 12.6678 14.8646 12.7902ZM39.7522 14.1044C40.1135 14.2968 40.1127 14.29 40.1153 17.3538L40.1178 20.2648L39.9262 20.4563L39.7346 20.6479H27.5224C20.8057 20.6479 15.2534 20.6261 15.184 20.5995C14.8532 20.4725 14.8292 20.2488 14.8292 17.2896V14.4699L15.0574 14.2417L15.2855 14.0136H27.4336C36.5197 14.0136 39.6247 14.0364 39.7522 14.1044ZM31.7595 16.143C31.6915 16.1953 31.5948 16.3148 31.5449 16.4085C31.4355 16.6141 31.4234 17.9814 31.5287 18.2582C31.7326 18.7946 32.4606 18.824 32.726 18.3064C32.8393 18.0854 32.8616 17.8816 32.843 17.2393C32.8223 16.5233 32.8014 16.4256 32.6308 16.2441C32.4223 16.0225 31.9829 15.9715 31.7595 16.143ZM34.3361 16.2441C34.1655 16.4256 34.1446 16.5233 34.1239 17.2393C34.1053 17.8816 34.1276 18.0854 34.2409 18.3064C34.5063 18.824 35.2343 18.7946 35.4382 18.2582C35.4792 18.1504 35.5128 17.7159 35.5128 17.2927C35.5128 16.5787 35.4982 16.5058 35.3107 16.2831C35.0422 15.9639 34.6156 15.9469 34.3361 16.2441ZM37.0093 16.2235C36.8553 16.3876 36.8396 16.4874 36.8396 17.3099C36.8396 17.808 36.8615 18.2724 36.8881 18.3419C36.9474 18.4962 37.318 18.6966 37.5442 18.6966C37.6355 18.6966 37.8129 18.594 37.9384 18.4685C38.1619 18.245 38.1665 18.2236 38.1665 17.4109C38.1665 16.2803 38.0391 16.0429 37.4323 16.0429C37.2685 16.0429 37.1191 16.1068 37.0093 16.2235ZM17.2098 16.7575C16.8109 16.9756 16.7227 17.5272 17.0391 17.8245C17.2406 18.0137 17.6771 18.0499 17.88 17.8941C18.238 17.6192 18.2699 17.2081 17.9573 16.8955C17.7194 16.6576 17.4749 16.6124 17.2098 16.7575ZM19.8635 16.7616C19.6195 16.9015 19.5174 17.0748 19.5148 17.3538C19.5085 18.0084 20.4267 18.2532 20.725 17.6764C20.8943 17.3489 20.8653 17.1498 20.611 16.8955C20.3715 16.6559 20.1248 16.6117 19.8635 16.7616ZM22.4062 16.8694C21.9303 17.2698 22.2029 17.9942 22.8295 17.9942C23.444 17.9942 23.7049 17.3356 23.2647 16.8955C22.9818 16.6125 22.7209 16.6046 22.4062 16.8694ZM38.7909 23.0285V24.0041H27.4735H16.1561V23.0285V22.0529H27.4735H38.7909V23.0285ZM39.7522 25.4218C40.1099 25.6123 40.1127 25.6338 40.1153 28.2328L40.1178 30.7053L39.6729 30.8718C38.7224 31.2274 38.2678 31.2958 36.8787 31.2919C35.7092 31.2887 35.4314 31.2615 34.5371 31.0624C33.9791 30.9382 33.324 30.8406 33.0813 30.8456C32.5077 30.8573 31.9057 31.1733 31.5804 31.6336L31.346 31.9654H23.3281C18.9183 31.9654 15.2534 31.9435 15.184 31.9169C14.8536 31.7901 14.8292 31.5647 14.8292 28.6304C14.8292 25.6146 14.8344 25.5751 15.2473 25.4084C15.5184 25.299 39.5463 25.3122 39.7522 25.4218ZM31.6498 27.6081C31.4465 27.8497 31.442 27.8776 31.4672 28.7468C31.4924 29.612 31.4995 29.6431 31.7122 29.8259C31.9959 30.0697 32.3415 30.0704 32.5842 29.8277C32.8195 29.5924 32.8825 29.256 32.8476 28.4232C32.8238 27.8534 32.7941 27.7355 32.6308 27.5617C32.3483 27.2611 31.9249 27.2811 31.6498 27.6081ZM34.3361 27.5617C34.1728 27.7355 34.1431 27.8534 34.1192 28.4232C34.0844 29.256 34.1474 29.5924 34.3827 29.8277C34.6254 30.0704 34.971 30.0697 35.2547 29.8259C35.4674 29.6431 35.4745 29.612 35.4997 28.7468C35.5249 27.8776 35.5204 27.8497 35.3171 27.6081C35.042 27.2811 34.6185 27.2611 34.3361 27.5617ZM37.0093 27.5409C36.8542 27.7061 36.8396 27.8035 36.8396 28.6763C36.8396 29.5858 36.8487 29.64 37.0313 29.8225C37.2998 30.091 37.6472 30.0771 37.9384 29.7859C38.1619 29.5623 38.1665 29.5412 38.1665 28.7271C38.1665 27.6417 38.0243 27.3678 37.4581 27.3628C37.2651 27.3611 37.1267 27.4161 37.0093 27.5409ZM17.2098 28.0749C16.9578 28.2127 16.8585 28.3861 16.8585 28.6885C16.8585 29.0441 17.1177 29.3116 17.4621 29.3116C17.8138 29.3116 17.9423 29.2432 18.0761 28.9843C18.3748 28.4067 17.7678 27.7696 17.2098 28.0749ZM19.8635 28.079C19.4827 28.2974 19.3982 28.7553 19.6741 29.1059C19.8003 29.2665 19.9039 29.3116 20.1459 29.3116C20.7899 29.3116 21.0635 28.6654 20.611 28.2129C20.3715 27.9733 20.1248 27.9292 19.8635 28.079ZM22.4062 28.1868C21.9303 28.5872 22.2029 29.3116 22.8295 29.3116C23.444 29.3116 23.7049 28.653 23.2647 28.2129C22.9818 27.93 22.7209 27.922 22.4062 28.1868ZM42.8911 31.4986C43.6 31.9462 44.406 32.2748 45.3082 32.484C45.8008 32.5982 46.2458 32.6286 47.4156 32.628C48.7346 32.6274 49.0166 32.603 49.9663 32.4077C51.1834 32.1574 51.4028 32.1609 51.5996 32.4337C51.7821 32.6865 51.9564 33.8714 52.0749 35.6648C52.3398 39.6724 51.3088 43.1787 48.9513 46.2878C48.4789 46.9108 47.2358 48.1858 46.557 48.7435C45.4728 49.6342 43.8892 50.5699 42.5959 51.0838L42.1471 51.2621L41.6983 51.0849C40.9565 50.7919 39.6525 50.107 38.947 49.6397C34.721 46.841 32.1528 42.0386 32.1574 36.9442C32.1583 35.9283 32.2669 34.5474 32.4386 33.3703C32.572 32.4556 32.7186 32.1995 33.109 32.1995C33.2316 32.1995 33.7786 32.2941 34.3248 32.4098C35.2098 32.5973 35.4873 32.6204 36.8787 32.6227C38.2412 32.6249 38.5276 32.6031 39.1309 32.4509C40.0064 32.2301 40.7025 31.9353 41.4426 31.472C41.7635 31.2711 42.081 31.1068 42.1483 31.1068C42.2156 31.1068 42.5499 31.2831 42.8911 31.4986ZM31.036 33.6073C31.0098 33.7377 30.9652 34.1768 30.9366 34.583L30.8847 35.3216H23.5204H16.1561V34.3459V33.3703H23.6197H31.0834L31.036 33.6073ZM47.0378 35.4972C46.9326 35.5938 45.5209 37.2709 43.9007 39.2241C42.2806 41.1773 40.9067 42.8273 40.8477 42.8907C40.7546 42.9906 40.5877 42.8547 39.59 41.8669C38.9573 41.2404 38.3762 40.706 38.2987 40.6792C38.2212 40.6525 38.0366 40.6813 37.8885 40.7432C37.5859 40.8696 37.4324 41.166 37.5031 41.4875C37.5632 41.7614 40.3902 44.5785 40.6759 44.6495C40.7968 44.6794 40.9638 44.6574 41.0771 44.5967C41.2633 44.4969 47.8907 36.6101 48.07 36.2749C48.2127 36.0083 48.1705 35.7913 47.9289 35.5497C47.6476 35.2685 47.3088 35.2485 47.0378 35.4972ZM30.8297 37.464C30.8297 38.9873 31.1514 40.7668 31.7222 42.4014C31.8753 42.8397 32.0005 43.2173 32.0005 43.2405C32.0005 43.2998 15.3386 43.2936 15.184 43.2343C14.854 43.1077 14.8291 42.8799 14.8304 39.989C14.8315 37.0441 14.8442 36.9393 15.221 36.7486C15.3724 36.6721 17.0966 36.6505 23.1221 36.6496L30.8297 36.6484V37.464ZM17.2098 39.3933C16.9599 39.5417 16.8637 39.7119 16.861 40.0106C16.8568 40.4821 17.3428 40.7678 17.8307 40.5806C18.0271 40.5052 18.202 40.1016 18.1469 39.8509C18.0573 39.4429 17.5462 39.1933 17.2098 39.3933ZM19.7606 39.4973C19.2815 39.9005 19.5295 40.629 20.1459 40.629C20.7478 40.629 21.0493 40.018 20.6635 39.5796C20.3946 39.2741 20.062 39.2437 19.7606 39.4973ZM22.3942 39.5303C22.103 39.8214 22.0891 40.1689 22.3576 40.4374C22.7626 40.8424 23.4929 40.5624 23.4929 40.0022C23.4929 39.6914 23.124 39.3022 22.8295 39.3022C22.7046 39.3022 22.5317 39.3928 22.3942 39.5303Z" fill="white"/>
<defs>
<linearGradient id="paint0_linear_37_12738" x1="0.5" y1="34.0654" x2="65.5" y2="34.0654" gradientUnits="userSpaceOnUse">
<stop stop-color="#00469F"/>
<stop offset="1" stop-color="#1E79D6"/>
</linearGradient>
</defs>
</svg>

<svg xmlns="http://www.w3.org/2000/svg" width="66" height="66" fill="none" xmlns:v="https://vecta.io/nano"><rect x=".5" y=".687" width="65" height="65" rx="8" fill="url(#A)"/><path fill-rule="evenodd" d="M14.865 12.79c-.388.149-.767.417-.958.675-.389.526-.404.672-.404 3.856l.081 3.266c.113.408.53.925.917 1.14l.328.181v1.116 1.116l-.236.098c-.329.136-.887.78-.998 1.151-.12.4-.13 6.088-.011 6.514.113.408.53.925.917 1.14l.328.181v1.121c0 1.072-.007 1.123-.165 1.173-.29.092-.791.61-.978 1.012-.181.388-.182.407-.182 3.473 0 3.074.001 3.084.184 3.478a2.42 2.42 0 0 0 .523.685c.638.546.158.521 9.808.521h8.692l.133.241c.968 1.755 2.553 3.644 4.116 4.905 1.318 1.064 3.269 2.18 4.662 2.669l.528.185.526-.18c.289-.099.985-.405 1.545-.679 4.284-2.098 7.472-5.985 8.699-10.607.434-1.635.503-2.241.5-4.416-.002-1.925-.095-3.084-.351-4.351-.182-.901-.971-1.588-1.85-1.609-.251-.006-.891.09-1.461.219-.916.207-1.147.229-2.38.227-1.154-.002-1.462-.028-1.983-.171-.738-.202-1.325-.461-1.958-.867-.614-.393-.979-.502-1.494-.449l-.418.043V27.99c0-1.021-.036-2.046-.079-2.277-.11-.585-.431-1.072-.917-1.392l-.408-.269v-1.059-1.059l.277-.149a2.67 2.67 0 0 0 .96-1.046c.113-.249.129-.666.129-3.367v-3.083l-.234-.468c-.259-.518-.712-.917-1.192-1.05-.438-.122-24.875-.101-25.193.022zm24.888 1.314c.361.192.36.186.363 3.249l.003 2.911-.192.191-.192.192H27.522c-6.717 0-12.269-.022-12.338-.048-.331-.127-.355-.351-.355-3.31v-2.82l.228-.228.228-.228h12.148l12.319.091zm-7.993 2.039c-.068.052-.165.172-.215.265-.109.206-.121 1.573-.016 1.85.204.536.932.566 1.197.048.113-.221.136-.425.117-1.067-.021-.716-.042-.814-.212-.995-.209-.222-.648-.273-.871-.101zm2.577.101c-.171.181-.192.279-.212.995-.019.642.004.846.117 1.067.265.518.993.488 1.197-.048.041-.108.075-.542.075-.965 0-.714-.015-.787-.202-1.01-.268-.319-.695-.336-.975-.039zm2.673-.021c-.154.164-.17.264-.17 1.086 0 .498.022.963.049 1.032.059.154.43.355.656.355.091 0 .269-.103.394-.228.224-.223.228-.245.228-1.058 0-1.131-.127-1.368-.734-1.368-.164 0-.313.064-.423.181zm-19.8.534c-.399.218-.487.77-.171 1.067.201.189.638.225.841.07.358-.275.39-.686.077-.999-.238-.238-.482-.283-.747-.138zm2.654.004c-.244.14-.346.313-.349.592-.006.655.912.899 1.21.323.169-.328.14-.527-.114-.781-.239-.24-.486-.284-.748-.134zm2.543.108c-.476.4-.203 1.125.423 1.125.614 0 .875-.659.435-1.099-.283-.283-.544-.291-.859-.026zm16.385 6.159v.976H27.474 16.156v-.976-.976h11.317 11.317v.976zm.961 2.393c.358.191.36.212.363 2.811l.003 2.473-.445.166c-.95.356-1.405.424-2.794.42-1.169-.003-1.447-.03-2.342-.229-.558-.124-1.213-.222-1.456-.217-.574.012-1.176.328-1.501.788l-.234.332h-8.018c-4.41 0-8.075-.022-8.144-.049-.33-.127-.355-.352-.355-3.286 0-3.016.005-3.055.418-3.222.271-.109 24.299-.096 24.505.013zm-8.102 2.186c-.203.242-.208.27-.183 1.139s.032.896.245 1.079c.284.244.629.244.872.002.235-.235.298-.572.263-1.404-.024-.57-.053-.688-.217-.862-.282-.301-.706-.281-.981.046zm2.686-.046c-.163.174-.193.292-.217.862-.035.833.028 1.169.264 1.404.243.243.588.242.872-.002.213-.183.22-.214.245-1.079s.021-.897-.183-1.139c-.275-.327-.699-.347-.981-.046zm2.673-.021c-.155.165-.17.263-.17 1.135 0 .909.009.964.192 1.146.268.268.616.255.907-.037.224-.224.228-.245.228-1.059 0-1.085-.142-1.359-.708-1.364a.56.56 0 0 0-.449.178zm-19.8.534c-.252.138-.351.311-.351.614 0 .356.259.623.604.623.352 0 .48-.068.614-.327.299-.578-.308-1.215-.866-.909zm2.654.004c-.381.218-.465.676-.189 1.027.126.161.23.206.472.206.644 0 .918-.646.465-1.099-.239-.24-.486-.284-.748-.134zm2.543.108c-.476.4-.203 1.125.423 1.125.614 0 .875-.659.435-1.099-.283-.283-.544-.291-.859-.026zm20.485 3.312c.709.448 1.515.776 2.417.985.493.114.938.145 2.107.144 1.319-.001 1.601-.025 2.551-.22 1.217-.25 1.437-.247 1.633.026.182.253.357 1.438.475 3.231.265 4.008-.766 7.514-3.124 10.623-.472.623-1.716 1.898-2.394 2.456-1.084.891-2.668 1.826-3.961 2.34l-.449.178-.449-.177a18.84 18.84 0 0 1-2.751-1.445c-4.226-2.799-6.794-7.601-6.79-12.695.001-1.016.109-2.397.281-3.574.133-.915.28-1.171.67-1.171.123 0 .67.095 1.216.21.885.188 1.162.211 2.554.213 1.362.002 1.649-.02 2.252-.172a7.66 7.66 0 0 0 2.312-.979c.321-.201.638-.365.706-.365s.402.176.743.392zm-11.855 2.109c-.026.13-.071.569-.099.976l-.052.739H23.52h-7.364v-.976-.976h7.464 7.464l-.047.237zm16.002 1.89c-.105.097-1.517 1.774-3.137 3.727l-3.053 3.667c-.093.1-.26-.036-1.258-1.024-.633-.626-1.214-1.161-1.291-1.188s-.262.002-.41.064c-.303.126-.456.423-.385.744.06.274 2.887 3.091 3.173 3.162a.62.62 0 0 0 .401-.053c.186-.1 6.814-7.987 6.993-8.322.143-.267.1-.484-.141-.725-.281-.281-.62-.301-.891-.053zM30.83 37.464c0 1.523.322 3.303.893 4.937.153.438.278.816.278.839 0 .059-16.662.053-16.817-.006-.33-.127-.355-.354-.354-3.245.001-2.945.014-3.05.391-3.24.151-.077 1.876-.098 7.901-.099l7.708-.001v.816zm-13.62 1.929a.63.63 0 0 0-.349.617c-.004.472.482.757.97.57.196-.075.371-.479.316-.73-.09-.408-.601-.658-.937-.458zm2.551.104c-.479.403-.231 1.132.385 1.132.602 0 .903-.611.518-1.049-.269-.306-.601-.336-.903-.082zm2.634.033c-.291.291-.305.639-.037.907.405.405 1.135.125 1.135-.435 0-.311-.369-.7-.663-.7-.125 0-.298.091-.435.228z" fill="#fff"/><defs><linearGradient id="A" x1=".5" y1="34.065" x2="65.5" y2="34.065" gradientUnits="userSpaceOnUse"><stop stop-color="#00469f"/><stop offset="1" stop-color="#1e79d6"/></linearGradient></defs></svg>
